packages/tokens/icons/brokenSearch/size32Px.svg

<svg viewBox="0 0 32 32" fill="none" xmlns="http://www.w3.org/2000/svg" width="1em" height="1em"><circle cx="12.784" cy="12.784" r="10.284" stroke="currentColor"/><path d="M29.5 29.5098L20.3301 20.3398" stroke="currentColor" stroke-linecap="round" stroke-linejoin="round"/><path fill-rule="evenodd" clip-rule="evenodd" d="M9.85355 8.14645C9.65829 7.95118 9.34171 7.95118 9.14645 8.14645C8.95118 8.34171 8.95118 8.65829 9.14645 8.85355L12.0429 11.75L9.64645 14.1464C9.45118 14.3417 9.45118 14.6583 9.64645 14.8536C9.84171 15.0488 10.1583 15.0488 10.3536 14.8536L15 10.2071L17.6464 12.8536C17.8417 13.0488 18.1583 13.0488 18.3536 12.8536L22.3536 8.85355C22.5488 8.65829 22.5488 8.34171 22.3536 8.14645C22.1583 7.95118 21.8417 7.95118 21.6464 8.14645L18 11.7929L15.3536 9.14645C15.1583 8.95118 14.8417 8.95118 14.6464 9.14645L12.75 11.0429L9.85355 8.14645Z" fill="currentColor"/></svg>

<svg xmlns="http://www.w3.org/2000/svg" fill="none" viewBox="0 0 32 32" width="1em" height="1em"><circle cx="12.784" cy="12.784" r="10.284" stroke="currentColor"/><path stroke="currentColor" stroke-linecap="round" stroke-linejoin="round" d="m29.5 29.51-9.17-9.17"/><path fill="currentColor" fill-rule="evenodd" d="M9.854 8.146a.5.5 0 1 0-.708.708l2.897 2.896-2.397 2.396a.5.5 0 0 0 .708.708L15 10.207l2.646 2.647a.5.5 0 0 0 .708 0l4-4a.5.5 0 0 0-.708-.708L18 11.793l-2.646-2.647a.5.5 0 0 0-.708 0l-1.896 1.897-2.896-2.897Z" clip-rule="evenodd"/></svg>
